X: 42
T: VALSE du BOURDON
M: 3/4
L: 1/8
Q:1/4=80
K:G 
|:d2c B2A|GBd g2f|a2g f2e|dfe d2B|1d2c B2AGB:|2def g2d|!
|bg/2b/2g/2d/2 edd|bg/2b/2g/2d/2 edd'|c'2b a2g|1fef agd:|2fef g3|
